X: 14302
T: Galician
R: jig
M: 6/8
K: Dmajor
|:efe cBA|A3 cBA|efe cBA|ABc B3|
efe cBA|A3 cBA|ABA Bcd|efe A3:|
|:ABc def|efe cBA|ABc def|efe c3|
ABc def|efe cBA|efe cBA|BcB A3:|
|:a3 ece|a3 fdf|a3 ece|dBe ecA|
a3 ece|a3 fdf|a3 ece|dcB A3:|
|:ABc B2c|dcB c2A|Bcd d2B|Bcd e2A|
ABc B2c|dcB c2A|Bcd e3|dcB A3:|

